assets/icons/qvision/wc.svg

<svg xmlns="http://www.w3.org/2000/svg" height="24" viewBox="0 0 24 24" width="24"><path d="M0 0h24v24H0V0z" fill="none"/><path d="M5.5 22v-7.5H4V9c0-1.1.9-2 2-2h3c1.1 0 2 .9 2 2v5.5H9.5V22h-4zM18 22v-6h3l-2.54-7.63C18.18 7.55 17.42 7 16.56 7h-.12c-.86 0-1.63.55-1.9 1.37L12 16h3v6h3zM7.5 6c1.11 0 2-.89 2-2s-.89-2-2-2-2 .89-2 2 .89 2 2 2zm9 0c1.11 0 2-.89 2-2s-.89-2-2-2-2 .89-2 2 .89 2 2 2z"/></svg>

<svg width="24" height="24" viewBox="0 0 24 24" fill="none" xmlns="http://www.w3.org/2000/svg">
<g clip-path="url(#clip0_147_6071)">
<path d="M5.5 22V14.5H4V9C4 7.9 4.9 7 6 7H9C10.1 7 11 7.9 11 9V14.5H9.5V22H5.5ZM18 22V16H21L18.46 8.37C18.18 7.55 17.42 7 16.56 7H16.44C15.58 7 14.81 7.55 14.54 8.37L12 16H15V22H18ZM7.5 6C8.61 6 9.5 5.11 9.5 4C9.5 2.89 8.61 2 7.5 2C6.39 2 5.5 2.89 5.5 4C5.5 5.11 6.39 6 7.5 6ZM16.5 6C17.61 6 18.5 5.11 18.5 4C18.5 2.89 17.61 2 16.5 2C15.39 2 14.5 2.89 14.5 4C14.5 5.11 15.39 6 16.5 6Z" fill="#323232"/>
</g>
<defs>
<clipPath id="clip0_147_6071">
<rect width="24" height="24" fill="white"/>
</clipPath>
</defs>
</svg>
